X:603
T: "Jaegerlied"
N: Z1283
O: Europa, Mitteleuropa, Deutschland
R: Jaeger - Lied
M: 3/8
L: 1/16
K: F
C2 | F3AG2 | A4F2 | A3cB2 | c2z2
c2 | d3Bd2 | c4A2 | B3Gc2 | A4
A2 | G2B2A2 | A2G2A2 | G2B2A2 | A2G2
c2 | d2c2B2 | c4c2 | d2dfe2 | f2z2E2 | F4

@@@ Tune index: 10361
